logos/schema-hero.svg

<svg xmlns="http://www.w3.org/2000/svg" role="img" viewBox="-8.12 -7.62 411.48 434.98"><title>SchemaHero logo</title><path fill="#326DE6" d="M16.2472 419.24C11.5598 419.24 7.76249 417.786 4.85515 414.879 2.00715 411.912.583152 408.056.583152 403.309V400.995C.583152 400.402.879818 400.105 1.47315 400.105H8.05915C8.65248 400.105 8.94915 400.402 8.94915 400.995V402.864C8.94915 405.593 9.63148 407.789 10.9962 409.45 12.3608 411.052 14.1112 411.853 16.2472 411.853 18.3832 411.853 20.1335 411.082 21.4982 409.539 22.9222 407.937 23.6342 405.86 23.6342 403.309 23.6342 401.588 23.2485 400.075 22.4772 398.77 21.7652 397.465 20.7862 396.308 19.5402 395.299 18.3535 394.231 16.3955 392.688 13.6662 390.671 10.6402 388.416 8.26682 386.488 6.54615 384.886 4.82548 383.284 3.37182 381.356 2.18515 379.101.998485 376.846.405151 374.206.405151 371.18.405151 366.374 1.82915 362.577 4.67715 359.788 7.52515 356.94 11.2335 355.516 15.8022 355.516 20.5488 355.516 24.3462 357.029 27.1942 360.055 30.1015 363.081 31.5552 367.056 31.5552 371.981V374.206C31.5552 374.799 31.2585 375.096 30.6652 375.096H24.0792C23.4858 375.096 23.1892 374.799 23.1892 374.206V371.803C23.1892 369.133 22.5068 366.997 21.1422 365.395 19.7775 363.734 17.9975 362.903 15.8022 362.903 13.7255 362.903 12.0345 363.645 10.7292 365.128 9.42382 366.552 8.77115 368.569 8.77115 371.18 8.77115 373.553 9.42382 375.571 10.7292 377.232 12.0345 378.834 14.5562 381 18.2942 383.729 21.8542 386.399 24.5242 388.565 26.3042 390.226 28.1435 391.887 29.5378 393.727 30.4872 395.744 31.4958 397.702 32.0002 400.046 32.0002 402.775 32.0002 407.759 30.5465 411.764 27.6392 414.79 24.7318 417.757 20.9345 419.24 16.2472 419.24zM54.9427 419.24C50.1367 419.24 46.2504 417.786 43.2837 414.879 40.3764 411.912 38.9227 407.996 38.9227 403.131V371.536C38.9227 366.671 40.3764 362.784 43.2837 359.877 46.2504 356.97 50.1367 355.516 54.9427 355.516 59.808 355.516 63.6943 356.97 66.6017 359.877 69.5684 362.784 71.0517 366.671 71.0517 371.536V372.96C71.0517 373.553 70.755 373.85 70.1617 373.85L63.3977 374.206C62.8044 374.206 62.5077 373.909 62.5077 373.316V371.002C62.5077 368.569 61.7957 366.611 60.3717 365.128 59.007 363.645 57.1974 362.903 54.9427 362.903 52.688 362.903 50.8784 363.645 49.5137 365.128 48.149 366.611 47.4667 368.569 47.4667 371.002V403.754C47.4667 406.187 48.149 408.145 49.5137 409.628 50.8784 411.111 52.688 411.853 54.9427 411.853 57.1974 411.853 59.007 411.111 60.3717 409.628 61.7957 408.145 62.5077 406.187 62.5077 403.754V401.44C62.5077 400.847 62.8044 400.55 63.3977 400.55L70.1617 400.906C70.755 400.906 71.0517 401.203 71.0517 401.796V403.131C71.0517 407.996 69.5684 411.912 66.6017 414.879 63.6943 417.786 59.808 419.24 54.9427 419.24zM102.66 357.118C102.66 356.525 102.957 356.228 103.55 356.228H110.314C110.907 356.228 111.204 356.525 111.204 357.118V417.638C111.204 418.231 110.907 418.528 110.314 418.528H103.55C102.957 418.528 102.66 418.231 102.66 417.638V391.383C102.66 391.146 102.541 391.027 102.304 391.027H88.8649C88.6276 391.027 88.5089 391.146 88.5089 391.383V417.638C88.5089 418.231 88.2122 418.528 87.6189 418.528H80.8549C80.2616 418.528 79.9649 418.231 79.9649 417.638V357.118C79.9649 356.525 80.2616 356.228 80.8549 356.228H87.6189C88.2122 356.228 88.5089 356.525 88.5089 357.118V383.284C88.5089 383.521 88.6276 383.64 88.8649 383.64H102.304C102.541 383.64 102.66 383.521 102.66 383.284V357.118zM151.054 362.725C151.054 363.318 150.757 363.615 150.164 363.615H130.139C129.901 363.615 129.783 363.734 129.783 363.971V383.284C129.783 383.521 129.901 383.64 130.139 383.64H142.421C143.014 383.64 143.311 383.937 143.311 384.53V390.137C143.311 390.73 143.014 391.027 142.421 391.027H130.139C129.901 391.027 129.783 391.146 129.783 391.383V410.785C129.783 411.022 129.901 411.141 130.139 411.141H150.164C150.757 411.141 151.054 411.438 151.054 412.031V417.638C151.054 418.231 150.757 418.528 150.164 418.528H122.129C121.535 418.528 121.239 418.231 121.239 417.638V357.118C121.239 356.525 121.535 356.228 122.129 356.228H150.164C150.757 356.228 151.054 356.525 151.054 357.118V362.725zM186.889 356.851C187.126 356.436 187.482 356.228 187.957 356.228H194.721C195.314 356.228 195.611 356.525 195.611 357.118V417.638C195.611 418.231 195.314 418.528 194.721 418.528H187.957C187.363 418.528 187.067 418.231 187.067 417.638V373.494C187.067 373.316 187.007 373.227 186.889 373.227 186.829 373.227 186.74 373.286 186.622 373.405L178.078 389.336C177.9 389.751 177.633 389.959 177.277 389.959 176.921 389.959 176.654 389.751 176.476 389.336L168.021 373.494C167.902 373.375 167.783 373.316 167.665 373.316 167.605 373.316 167.576 373.405 167.576 373.583V417.638C167.576 418.231 167.279 418.528 166.686 418.528H159.922C159.328 418.528 159.032 418.231 159.032 417.638V357.118C159.032 356.525 159.328 356.228 159.922 356.228H166.686C167.101 356.228 167.457 356.436 167.754 356.851L177.099 373.583C177.158 373.642 177.247 373.672 177.366 373.672 177.484 373.672 177.573 373.642 177.633 373.583L186.889 356.851zM230.345 418.528C229.811 418.528 229.485 418.261 229.366 417.727L227.408 407.492C227.408 407.373 227.349 407.284 227.23 407.225 227.171 407.166 227.082 407.136 226.963 407.136H212.456C212.337 407.136 212.219 407.166 212.1 407.225 212.041 407.284 212.011 407.373 212.011 407.492L210.142 417.727C210.083 418.261 209.756 418.528 209.163 418.528H202.399C202.102 418.528 201.865 418.439 201.687 418.261 201.568 418.083 201.539 417.846 201.598 417.549L214.859 357.029C214.978 356.495 215.304 356.228 215.838 356.228H223.759C224.352 356.228 224.679 356.495 224.738 357.029L238.088 417.549V417.727C238.088 418.261 237.821 418.528 237.287 418.528H230.345zM213.524 400.016C213.524 400.253 213.613 400.372 213.791 400.372H225.628C225.806 400.372 225.895 400.253 225.895 400.016L219.843 368.421C219.784 368.302 219.724 368.243 219.665 368.243 219.606 368.243 219.546 368.302 219.487 368.421L213.524 400.016z"/><path fill="#1D4493" d="M267.371 357.118C267.371 356.525 267.667 356.228 268.261 356.228H275.025C275.618 356.228 275.915 356.525 275.915 357.118V417.638C275.915 418.231 275.618 418.528 275.025 418.528H268.261C267.667 418.528 267.371 418.231 267.371 417.638V391.383C267.371 391.146 267.252 391.027 267.015 391.027H253.576C253.338 391.027 253.22 391.146 253.22 391.383V417.638C253.22 418.231 252.923 418.528 252.33 418.528H245.566C244.972 418.528 244.676 418.231 244.676 417.638V357.118C244.676 356.525 244.972 356.228 245.566 356.228H252.33C252.923 356.228 253.22 356.525 253.22 357.118V383.284C253.22 383.521 253.338 383.64 253.576 383.64H267.015C267.252 383.64 267.371 383.521 267.371 383.284V357.118zM315.764 362.725C315.764 363.318 315.468 363.615 314.874 363.615H294.849C294.612 363.615 294.493 363.734 294.493 363.971V383.284C294.493 383.521 294.612 383.64 294.849 383.64H307.131C307.725 383.64 308.021 383.937 308.021 384.53V390.137C308.021 390.73 307.725 391.027 307.131 391.027H294.849C294.612 391.027 294.493 391.146 294.493 391.383V410.785C294.493 411.022 294.612 411.141 294.849 411.141H314.874C315.468 411.141 315.764 411.438 315.764 412.031V417.638C315.764 418.231 315.468 418.528 314.874 418.528H286.839C286.246 418.528 285.949 418.231 285.949 417.638V357.118C285.949 356.525 286.246 356.228 286.839 356.228H314.874C315.468 356.228 315.764 356.525 315.764 357.118V362.725zM348.662 418.528C348.128 418.528 347.772 418.291 347.594 417.816L339.406 391.294C339.347 391.116 339.228 391.027 339.05 391.027H332.82C332.583 391.027 332.464 391.146 332.464 391.383V417.638C332.464 418.231 332.168 418.528 331.574 418.528H324.81C324.217 418.528 323.92 418.231 323.92 417.638V357.118C323.92 356.525 324.217 356.228 324.81 356.228H340.741C343.767 356.228 346.437 356.97 348.751 358.453 351.065 359.936 352.845 362.043 354.091 364.772 355.397 367.442 356.049 370.498 356.049 373.939 356.049 377.677 355.278 380.94 353.735 383.729 352.193 386.458 350.086 388.446 347.416 389.692 347.238 389.87 347.179 390.048 347.238 390.226L356.316 417.549 356.405 417.905C356.405 418.32 356.138 418.528 355.604 418.528H348.662zM332.82 363.615C332.583 363.615 332.464 363.734 332.464 363.971V383.907C332.464 384.144 332.583 384.263 332.82 384.263H339.406C341.839 384.263 343.797 383.343 345.28 381.504 346.764 379.605 347.505 377.113 347.505 374.028 347.505 370.824 346.764 368.302 345.28 366.463 343.797 364.564 341.839 363.615 339.406 363.615H332.82zM378.756 419.24C373.89 419.24 369.974 417.757 367.008 414.79 364.041 411.823 362.558 407.878 362.558 402.953V371.892C362.558 366.967 364.041 363.022 367.008 360.055 369.974 357.029 373.89 355.516 378.756 355.516 383.68 355.516 387.626 357.029 390.593 360.055 393.619 363.022 395.132 366.967 395.132 371.892V402.953C395.132 407.878 393.619 411.823 390.593 414.79 387.626 417.757 383.68 419.24 378.756 419.24zM378.756 411.853C381.129 411.853 383.028 411.082 384.452 409.539 385.876 407.937 386.588 405.86 386.588 403.309V371.447C386.588 368.896 385.876 366.849 384.452 365.306 383.028 363.704 381.129 362.903 378.756 362.903 376.442 362.903 374.573 363.704 373.149 365.306 371.784 366.849 371.102 368.896 371.102 371.447V403.309C371.102 405.86 371.784 407.937 373.149 409.539 374.573 411.082 376.442 411.853 378.756 411.853z"/><path fill="#326DE6" fill-rule="evenodd" d="M197.381 20.2909C195.765 19.4785 193.861 19.4785 192.245 20.2909L86.308 73.5651C84.7818 74.3326 83.6787 75.7426 83.3008 77.409L57.5345 191.043C57.151 192.734 57.5556 194.508 58.6344 195.866L131.185 287.162C132.27 288.526 133.917 289.322 135.66 289.322H253.966C255.709 289.322 257.356 288.526 258.441 287.162L330.992 195.866C332.071 194.508 332.475 192.734 332.092 191.043L306.325 77.409C305.947 75.7426 304.844 74.3326 303.318 73.5651L197.381 20.2909ZM187.11 10.0737C191.956 7.63642 197.67 7.63642 202.516 10.0737L308.454 63.3479C313.032 65.6504 316.342 69.8805 317.475 74.8795L343.242 188.514C344.392 193.587 343.178 198.909 339.942 202.982L267.391 294.278C264.138 298.372 259.195 300.757 253.966 300.757H135.66C130.432 300.757 125.489 298.372 122.235 294.278L49.6843 202.982C46.4479 198.909 45.2342 193.587 46.3846 188.514L72.151 74.8795C73.2845 69.8805 76.5938 65.6504 81.1724 63.3479L187.11 10.0737Z" clip-rule="evenodd"/><path fill="#326DE6" fill-rule="evenodd" d="M201.144 14.4783L237.42 185.352L75.1427 79.5415L81.3862 69.9614L220.49 160.663L189.961 16.8536L201.144 14.4783Z" clip-rule="evenodd"/><path fill="#326DE6" fill-rule="evenodd" d="M331.342 198.481L227.577 177.07L229.754 165.858L333.519 187.27L331.342 198.481Z" clip-rule="evenodd"/><path fill="#326DE6" fill-rule="evenodd" d="M232.87 175.078L136.14 293.678L127.281 286.449L224.011 167.849L232.87 175.078Z" clip-rule="evenodd"/><path fill="#326DE6" fill-rule="evenodd" d="M126.163 290.969L72.7169 76.1315 83.8116 73.3701 137.257 288.208 126.163 290.969zM326.484 203.848L147.367 290.969 143.128 281.533 322.245 194.412 326.484 203.848z" clip-rule="evenodd"/><path fill="#1D4493" d="M249.512 167.849C249.512 180.131 239.558 190.087 227.279 190.087 215 190.087 205.047 180.131 205.047 167.849 205.047 155.567 215 145.611 227.279 145.611 239.558 145.611 249.512 155.567 249.512 167.849zM348.978 194.412C348.978 202.787 342.19 209.576 333.817 209.576 325.444 209.576 318.657 202.787 318.657 194.412 318.657 186.037 325.444 179.248 333.817 179.248 342.19 179.248 348.978 186.037 348.978 194.412zM151.574 287.719C151.574 297.986 143.253 306.31 132.989 306.31 122.724 306.31 114.403 297.986 114.403 287.719 114.403 277.452 122.724 269.129 132.989 269.129 143.253 269.129 151.574 277.452 151.574 287.719zM92.6663 74.7505C92.6663 82.7065 86.2183 89.1561 78.2643 89.1561 70.3103 89.1561 63.8623 82.7065 63.8623 74.7505 63.8623 66.7946 70.3103 60.345 78.2643 60.345 86.2183 60.345 92.6663 66.7946 92.6663 74.7505zM208.334 14.4782C208.334 21.9475 202.281 28.0026 194.813 28.0026 187.346 28.0026 181.292 21.9475 181.292 14.4782 181.292 7.00892 187.346.953857 194.813.953857 202.281.953857 208.334 7.00892 208.334 14.4782z"/></svg>

<svg xmlns="http://www.w3.org/2000/svg" viewBox="-8.12 -7.62 411.48 434.98">
	<path fill="#326DE6" d="M16.247 419.24c-4.687 0-8.485-1.454-11.392-4.361-2.848-2.967-4.272-6.823-4.272-11.57v-2.314c0-.593.297-.89.89-.89H8.06c.593 0 .89.297.89.89v1.869c0 2.729.682 4.925 2.047 6.586 1.365 1.602 3.115 2.403 5.251 2.403s3.887-.771 5.251-2.314c1.424-1.602 2.136-3.679 2.136-6.23 0-1.721-.386-3.234-1.157-4.539-.712-1.305-1.69-2.462-2.937-3.471-1.186-1.068-3.145-2.611-5.874-4.628-3.026-2.255-5.4-4.183-7.12-5.785-1.72-1.602-3.174-3.53-4.36-5.785-1.188-2.255-1.78-4.895-1.78-7.921 0-4.806 1.423-8.603 4.271-11.392 2.848-2.848 6.556-4.272 11.125-4.272 4.747 0 8.544 1.513 11.392 4.539 2.908 3.026 4.361 7.001 4.361 11.926v2.225c0 .593-.296.89-.89.89H24.08c-.593 0-.89-.297-.89-.89v-2.403c0-2.67-.682-4.806-2.047-6.408-1.364-1.661-3.145-2.492-5.34-2.492-2.076 0-3.768.742-5.073 2.225-1.305 1.424-1.958 3.441-1.958 6.052 0 2.373.653 4.391 1.958 6.052 1.306 1.602 3.827 3.768 7.565 6.497 3.56 2.67 6.23 4.836 8.01 6.497 1.84 1.661 3.234 3.501 4.183 5.518 1.009 1.958 1.513 4.302 1.513 7.031 0 4.984-1.453 8.989-4.36 12.015-2.908 2.967-6.706 4.45-11.393 4.45zm38.696 0c-4.806 0-8.693-1.454-11.66-4.361-2.907-2.967-4.36-6.883-4.36-11.748v-31.595c0-4.865 1.453-8.752 4.36-11.659 2.967-2.907 6.854-4.361 11.66-4.361 4.865 0 8.751 1.454 11.659 4.361 2.966 2.907 4.45 6.794 4.45 11.659v1.424c0 .593-.297.89-.89.89l-6.764.356c-.594 0-.89-.297-.89-.89v-2.314c0-2.433-.712-4.391-2.136-5.874-1.365-1.483-3.175-2.225-5.43-2.225-2.254 0-4.064.742-5.428 2.225-1.365 1.483-2.047 3.441-2.047 5.874v32.752c0 2.433.682 4.391 2.047 5.874 1.364 1.483 3.174 2.225 5.429 2.225 2.254 0 4.064-.742 5.429-2.225 1.424-1.483 2.136-3.441 2.136-5.874v-2.314c0-.593.296-.89.89-.89l6.764.356c.593 0 .89.297.89.89v1.335c0 4.865-1.484 8.781-4.45 11.748-2.908 2.907-6.794 4.361-11.66 4.361zm47.717-62.122c0-.593.297-.89.89-.89h6.764c.593 0 .89.297.89.89v60.52c0 .593-.297.89-.89.89h-6.764c-.593 0-.89-.297-.89-.89v-26.255c0-.237-.119-.356-.356-.356h-13.44c-.236 0-.355.119-.355.356v26.255c0 .593-.297.89-.89.89h-6.764c-.593 0-.89-.297-.89-.89v-60.52c0-.593.297-.89.89-.89h6.764c.593 0 .89.297.89.89v26.166c0 .237.119.356.356.356h13.439c.237 0 .356-.119.356-.356v-26.166zm48.394 5.607c0 .593-.297.89-.89.89h-20.025c-.238 0-.356.119-.356.356v19.313c0 .237.118.356.356.356h12.282c.593 0 .89.297.89.89v5.607c0 .593-.297.89-.89.89h-12.282c-.238 0-.356.119-.356.356v19.402c0 .237.118.356.356.356h20.025c.593 0 .89.297.89.89v5.607c0 .593-.297.89-.89.89h-28.035c-.594 0-.89-.297-.89-.89v-60.52c0-.593.296-.89.89-.89h28.035c.593 0 .89.297.89.89v5.607zm35.835-5.874c.237-.415.593-.623 1.068-.623h6.764c.593 0 .89.297.89.89v60.52c0 .593-.297.89-.89.89h-6.764c-.594 0-.89-.297-.89-.89v-44.144c0-.178-.06-.267-.178-.267-.06 0-.149.059-.267.178l-8.544 15.931c-.178.415-.445.623-.801.623-.356 0-.623-.208-.801-.623l-8.455-15.842c-.119-.119-.238-.178-.356-.178-.06 0-.089.089-.089.267v44.055c0 .593-.297.89-.89.89h-6.764c-.594 0-.89-.297-.89-.89v-60.52c0-.593.296-.89.89-.89h6.764c.415 0 .771.208 1.068.623l9.345 16.732c.059.059.148.089.267.089.118 0 .207-.03.267-.089l9.256-16.732zm43.456 61.677c-.534 0-.86-.267-.979-.801l-1.958-10.235c0-.119-.059-.208-.178-.267-.059-.059-.148-.089-.267-.089h-14.507a.794.794 0 0 0-.356.089c-.059.059-.089.148-.089.267l-1.869 10.235c-.059.534-.386.801-.979.801h-6.764c-.297 0-.534-.089-.712-.267-.119-.178-.148-.415-.089-.712l13.261-60.52c.119-.534.445-.801.979-.801h7.921c.593 0 .92.267.979.801l13.35 60.52v.178c0 .534-.267.801-.801.801h-6.942zm-16.821-18.512c0 .237.089.356.267.356h11.837c.178 0 .267-.119.267-.356l-6.052-31.595c-.059-.119-.119-.178-.178-.178s-.119.059-.178.178l-5.963 31.595z"/>
	<path fill="#1D4493" d="M267.371 357.118c0-.593.296-.89.89-.89h6.764c.593 0 .89.297.89.89v60.52c0 .593-.297.89-.89.89h-6.764c-.594 0-.89-.297-.89-.89v-26.255c0-.237-.119-.356-.356-.356h-13.439c-.238 0-.356.119-.356.356v26.255c0 .593-.297.89-.89.89h-6.764c-.594 0-.89-.297-.89-.89v-60.52c0-.593.296-.89.89-.89h6.764c.593 0 .89.297.89.89v26.166c0 .237.118.356.356.356h13.439c.237 0 .356-.119.356-.356v-26.166zm48.393 5.607c0 .593-.296.89-.89.89h-20.025c-.237 0-.356.119-.356.356v19.313c0 .237.119.356.356.356h12.282c.594 0 .89.297.89.89v5.607c0 .593-.296.89-.89.89h-12.282c-.237 0-.356.119-.356.356v19.402c0 .237.119.356.356.356h20.025c.594 0 .89.297.89.89v5.607c0 .593-.296.89-.89.89h-28.035c-.593 0-.89-.297-.89-.89v-60.52c0-.593.297-.89.89-.89h28.035c.594 0 .89.297.89.89v5.607zm32.898 55.803c-.534 0-.89-.237-1.068-.712l-8.188-26.522c-.059-.178-.178-.267-.356-.267h-6.23c-.237 0-.356.119-.356.356v26.255c0 .593-.296.89-.89.89h-6.764c-.593 0-.89-.297-.89-.89v-60.52c0-.593.297-.89.89-.89h15.931c3.026 0 5.696.742 8.01 2.225s4.094 3.59 5.34 6.319c1.306 2.67 1.958 5.726 1.958 9.167 0 3.738-.771 7.001-2.314 9.79-1.542 2.729-3.649 4.717-6.319 5.963-.178.178-.237.356-.178.534l9.078 27.323.089.356c0 .415-.267.623-.801.623h-6.942zm-15.842-54.913c-.237 0-.356.119-.356.356v19.936c0 .237.119.356.356.356h6.586c2.433 0 4.391-.92 5.874-2.759 1.484-1.899 2.225-4.391 2.225-7.476 0-3.204-.741-5.726-2.225-7.565-1.483-1.899-3.441-2.848-5.874-2.848h-6.586zm45.936 55.625c-4.866 0-8.782-1.483-11.748-4.45-2.967-2.967-4.45-6.912-4.45-11.837v-31.061c0-4.925 1.483-8.87 4.45-11.837 2.966-3.026 6.882-4.539 11.748-4.539 4.924 0 8.87 1.513 11.837 4.539 3.026 2.967 4.539 6.912 4.539 11.837v31.061c0 4.925-1.513 8.87-4.539 11.837-2.967 2.967-6.913 4.45-11.837 4.45zm0-7.387c2.373 0 4.272-.771 5.696-2.314 1.424-1.602 2.136-3.679 2.136-6.23v-31.862c0-2.551-.712-4.598-2.136-6.141-1.424-1.602-3.323-2.403-5.696-2.403-2.314 0-4.183.801-5.607 2.403-1.365 1.543-2.047 3.59-2.047 6.141v31.862c0 2.551.682 4.628 2.047 6.23 1.424 1.543 3.293 2.314 5.607 2.314z"/>
	<path fill="#326DE6" fill-rule="evenodd" d="M197.381 20.29a5.716 5.716 0 0 0-5.136 0L86.308 73.566a5.718 5.718 0 0 0-3.007 3.844L57.534 191.043a5.72 5.72 0 0 0 1.1 4.823l72.551 91.296a5.719 5.719 0 0 0 4.475 2.16h118.306c1.743 0 3.39-.796 4.475-2.16l72.551-91.296a5.721 5.721 0 0 0 1.1-4.823L306.325 77.409a5.718 5.718 0 0 0-3.007-3.844L197.381 20.291ZM187.11 10.075a17.144 17.144 0 0 1 15.406 0l105.938 53.274a17.153 17.153 0 0 1 9.021 11.531l25.767 113.635a17.16 17.16 0 0 1-3.3 14.468l-72.551 91.296a17.146 17.146 0 0 1-13.425 6.479H135.66a17.149 17.149 0 0 1-13.425-6.479l-72.55-91.296a17.158 17.158 0 0 1-3.3-14.468L72.15 74.879a17.153 17.153 0 0 1 9.021-11.531L187.11 10.074Z" clip-rule="evenodd"/>
	<path fill="#326DE6" fill-rule="evenodd" d="m201.144 14.478 36.276 170.874L75.143 79.542l6.243-9.58 139.104 90.701-30.529-143.81 11.183-2.375Z" clip-rule="evenodd"/>
	<path fill="#326DE6" fill-rule="evenodd" d="M331.342 198.481 227.577 177.07l2.177-11.212 103.765 21.412-2.177 11.211Z" clip-rule="evenodd"/>
	<path fill="#326DE6" fill-rule="evenodd" d="m232.87 175.078-96.73 118.6-8.859-7.229 96.73-118.6 8.859 7.229Z" clip-rule="evenodd"/>
	<path fill="#326DE6" fill-rule="evenodd" d="M126.163 290.969 72.717 76.132l11.095-2.762 53.445 214.838-11.094 2.761zm200.321-87.121-179.117 87.121-4.239-9.436 179.117-87.121 4.239 9.436z" clip-rule="evenodd"/>
	<path fill="#1D4493" d="M249.512 167.849c0 12.282-9.954 22.238-22.233 22.238s-22.232-9.956-22.232-22.238 9.953-22.238 22.232-22.238 22.233 9.956 22.233 22.238zm99.466 26.563c0 8.375-6.788 15.164-15.161 15.164s-15.16-6.789-15.16-15.164 6.787-15.164 15.16-15.164c8.373 0 15.161 6.789 15.161 15.164zm-197.404 93.307c0 10.267-8.321 18.591-18.585 18.591-10.265 0-18.586-8.324-18.586-18.591 0-10.267 8.321-18.59 18.586-18.59 10.264 0 18.585 8.323 18.585 18.59zM92.666 74.75c0 7.957-6.448 14.406-14.402 14.406-7.954 0-14.402-6.45-14.402-14.406 0-7.955 6.448-14.405 14.402-14.405 7.954 0 14.402 6.45 14.402 14.406zm115.668-60.272c0 7.47-6.053 13.525-13.521 13.525-7.467 0-13.521-6.055-13.521-13.525 0-7.47 6.054-13.524 13.521-13.524 7.468 0 13.521 6.055 13.521 13.524z"/>
</svg>
